svgs/light/user-tie.svg

<svg xmlns="http://www.w3.org/2000/svg" viewBox="0 0 448 512"><!--! Font Awesome Pro 6.0.0-alpha3 by @fontawesome - https://fontawesome.com License - https://fontawesome.com/license (Commercial License) --><path d="M328.2 312.6c-1.496-.4863-3.018-.7168-4.521-.7168c-6.17 0-12.04 3.869-14.62 9.787l-35.34 80.94L246.2 320H256c8.844 0 16-7.156 16-16S264.8 288 256 288H192C183.2 288 176 295.2 176 304S183.2 320 192 320h9.791l-27.54 82.64l-35.34-80.94C136.3 315.8 130.5 311.9 124.3 311.9c-1.504 0-3.023 .2285-4.521 .7148c-69.96 22.72-120.5 88.59-119.8 166.3C.1758 497.4 16.16 512 34.66 512H413.3c18.5 0 34.49-14.57 34.65-33.08C448.7 401.2 398.2 335.3 328.2 312.6zM34.66 480c-1.512 0-2.545-1.064-2.656-1.365c-.5117-56.9 32.56-107.5 83.65-130.2L173.1 480H34.66zM240 479.1h-32l-14.62-33.48L224 354.6l30.62 91.88L240 479.1zM413.3 480h-138.4l57.44-131.6c51.1 22.7 84.17 73.3 83.66 130.2C415.9 478.9 414.8 480 413.3 480zM224 256c70.75 0 128-57.25 128-128s-57.25-128-128-128S96 57.25 96 128S153.3 256 224 256zM224 32c52.94 0 96 43.06 96 96c0 52.93-43.06 96-96 96S128 180.9 128 128C128 75.06 171.1 32 224 32z"/></svg>

<svg xmlns="http://www.w3.org/2000/svg" viewBox="0 0 448 512"><!-- Font Awesome Pro 6.0.0-alpha2 by @fontawesome - https://fontawesome.com License - https://fontawesome.com/license (Commercial License) --><path d="M328.228 312.627C326.732 312.141 325.21 311.91 323.706 311.91C317.536 311.91 311.671 315.779 309.087 321.697L273.751 402.637L246.206 320H255.997C264.841 320 271.997 312.844 271.997 304S264.841 288 255.997 288H191.997C183.154 288 175.997 295.156 175.997 304S183.154 320 191.997 320H201.788L174.244 402.637L138.908 321.697C136.324 315.781 130.458 311.912 124.288 311.912C122.785 311.912 121.265 312.141 119.767 312.627C49.804 335.348 -0.692 401.217 0.007 478.922C0.173 497.426 16.158 512 34.661 512H413.333C431.837 512 447.822 497.426 447.988 478.922C448.687 401.217 398.195 335.346 328.228 312.627ZM34.661 480C33.15 480 32.117 478.936 32.005 478.635C31.494 421.73 64.562 371.127 115.66 348.424L173.101 480H34.661ZM239.997 479.953H207.997L193.38 446.473L223.997 354.594L254.615 446.473L239.997 479.953ZM413.333 480H274.894L332.335 348.424C383.431 371.123 416.501 421.727 415.999 478.598C415.878 478.936 414.845 480 413.333 480ZM223.997 256C294.747 256 351.997 198.75 351.997 128S294.747 0 223.997 0S95.997 57.25 95.997 128S153.247 256 223.997 256ZM223.997 32C276.933 32 319.997 75.064 319.997 128C319.997 180.934 276.933 224 223.997 224S127.997 180.934 127.997 128C127.997 75.064 171.062 32 223.997 32Z"/></svg>
